SharedPackages/Infrastructure/DesignResourcesKitIcons/Sources/DesignResourcesKitIcons/DesignSystemImages.xcassets/Color/24px/Credit-Card-Check-Color-24.imageset/Credit-Card-Check-Color-24.svg

<svg width="24" height="24" viewBox="0 0 24 24" fill="none" xmlns="http://www.w3.org/2000/svg">
<path d="M17.0002 4.25C19.0713 4.25 20.7502 5.92893 20.7502 8V11.9996C19.7057 11.215 18.4073 10.75 17.0002 10.75C13.5485 10.75 10.7502 13.5482 10.7502 17C10.7502 17.9868 10.9793 18.9201 11.3866 19.75H7.00024C4.92918 19.75 3.25024 18.0711 3.25024 16V8C3.25024 5.92893 4.92918 4.25 7.00024 4.25H17.0002Z" fill="white"/>
<path d="M2.02063 16.4507C2.01777 16.4186 2.01505 16.3865 2.0127 16.3542V16.3533C2.01507 16.3858 2.01774 16.4183 2.02063 16.4507Z" fill="white"/>
<path d="M17.129 3.00159C19.8308 3.07002 22 5.28172 22 8V11.476C22 12.0447 21.2047 12.3412 20.75 11.9996V8C20.75 5.92893 19.0711 4.25 17 4.25H7C4.92893 4.25 3.25 5.92893 3.25 8V16C3.25 18.0711 4.92893 19.75 7 19.75H11.3864C11.6477 20.2824 11.2971 21 10.704 21H7C4.28172 21 2.07002 18.8308 2.00159 16.129L2 16V8C2 5.28172 4.16918 3.07002 6.87097 3.00159L7 3H17L17.129 3.00159Z" fill="#686868"/>
<path d="M8.875 15C9.28921 15 9.625 15.3358 9.625 15.75C9.625 16.1642 9.28921 16.5 8.875 16.5H5.25C4.83579 16.5 4.5 16.1642 4.5 15.75C4.5 15.3358 4.83579 15 5.25 15L8.875 15Z" fill="#888888"/>
<rect x="4.5" y="10.5" width="4.5" height="3" rx="0.75" fill="#FFC95C"/>
<circle cx="17" cy="17" r="5" fill="#38B26A"/>
<path d="M17 12C19.7614 12 22 14.2386 22 17C22 19.7614 19.7614 22 17 22C14.2386 22 12 19.7614 12 17C12 14.2386 14.2386 12 17 12ZM17 13.25C14.9289 13.25 13.25 14.9289 13.25 17C13.25 19.0711 14.9289 20.75 17 20.75C19.0711 20.75 20.75 19.0711 20.75 17C20.75 14.9289 19.0711 13.25 17 13.25Z" fill="#247A64"/>
<path d="M18.4331 15.4643C18.6771 15.2202 19.0728 15.2202 19.3168 15.4643C19.5609 15.7084 19.5609 16.104 19.3168 16.3481L16.9731 18.6918C16.729 18.9359 16.3334 18.9359 16.0893 18.6918L14.6831 17.2856C14.439 17.0415 14.439 16.6459 14.6831 16.4018C14.9271 16.1577 15.3228 16.1577 15.5668 16.4018L16.5312 17.3662L18.4331 15.4643Z" fill="white"/>
</svg>

<svg xmlns="http://www.w3.org/2000/svg" width="24" height="24" fill="none"><path fill="#fff" d="M17 4.25A3.75 3.75 0 0 1 20.75 8v4a6.25 6.25 0 0 0-9.364 7.75H7A3.75 3.75 0 0 1 3.25 16V8A3.75 3.75 0 0 1 7 4.25h10ZM2.02 16.45a6.047 6.047 0 0 0 0 0Z"/><path fill="url(#a)" d="M17.129 3.002A5 5 0 0 1 22 8v3.476c0 .569-.795.865-1.25.524V8A3.75 3.75 0 0 0 17 4.25H7A3.75 3.75 0 0 0 3.25 8v8A3.75 3.75 0 0 0 7 19.75h4.386c.262.532-.089 1.25-.682 1.25H7a5 5 0 0 1-4.998-4.871L2 16V8a5 5 0 0 1 4.871-4.998L7 3h10l.129.002Z"/><path fill="#888" d="M8.875 15a.75.75 0 0 1 0 1.5H5.25a.75.75 0 0 1 0-1.5h3.625Z"/><rect width="4.5" height="3" x="4.5" y="10.5" fill="#FC3" rx=".75"/><circle cx="17" cy="17" r="5" fill="#4CBA3C"/><path fill="url(#b)" d="M17 12a5 5 0 1 1 0 10 5 5 0 0 1 0-10Zm0 1.25a3.75 3.75 0 1 0 0 7.5 3.75 3.75 0 0 0 0-7.5Z"/><path fill="#fff" d="M18.433 15.464a.625.625 0 1 1 .884.884l-2.344 2.344a.625.625 0 0 1-.884 0l-1.406-1.406a.625.625 0 1 1 .884-.884l.964.964 1.902-1.902Z"/><defs><linearGradient id="a" x1="12" x2="12" y1="3" y2="21" gradientUnits="userSpaceOnUse"><stop stop-color="#888"/><stop offset="1" stop-color="#444"/></linearGradient><linearGradient id="b" x1="17" x2="17" y1="12" y2="22" gradientUnits="userSpaceOnUse"><stop stop-color="#4CBA3C"/><stop offset="1" stop-color="#288419"/></linearGradient></defs></svg>
